Sources/FrostedUI/Resources/Icons.xcassets/mobilePhoneSize20.imageset/mobile-phone-size-20.svg

<svg
  width="20"
  height="20"
  viewBox="0 0 20 20"
  fill="none"
  xmlns="http://www.w3.org/2000/svg"
  data-fui-icon="true"
>
  <path
    d="M8.12496 16.0417H11.875M7.29163 18.5417H12.7083C14.089 18.5417 15.2083 17.4224 15.2083 16.0417V3.95833C15.2083 2.57763 14.089 1.45833 12.7083 1.45833H7.29163C5.91092 1.45833 4.79163 2.57763 4.79163 3.95833V16.0417C4.79163 17.4224 5.91092 18.5417 7.29163 18.5417Z"
    stroke="currentColor"
    stroke-width="1.5"
    stroke-linecap="round"
    stroke-linejoin="round"
  />
</svg>

<svg xmlns="http://www.w3.org/2000/svg" width="20" height="20" fill="none" data-fui-icon="true" viewBox="0 0 20 20"><path stroke="currentColor" stroke-linecap="round" stroke-linejoin="round" stroke-width="1.5" d="M8.125 16.042h3.75m-4.583 2.5h5.416a2.5 2.5 0 0 0 2.5-2.5V3.958a2.5 2.5 0 0 0-2.5-2.5H7.292a2.5 2.5 0 0 0-2.5 2.5v12.084a2.5 2.5 0 0 0 2.5 2.5"/></svg>
